assets/features/channel/other/easypaisa.svg

<svg width="80" height="80" viewBox="0 0 80 80" fill="none" xmlns="http://www.w3.org/2000/svg">
<rect x="0.5" y="0.5" width="79" height="79" rx="7.5" fill="white"/>
<rect x="0.5" y="0.5" width="79" height="79" rx="7.5" stroke="#EEEEEE"/>
<path d="M40.7903 20C49.7491 20 57.0085 26.0073 57.0085 33.4294C57.0085 40.8515 49.7491 45.3557 40.7903 45.3557C31.957 45.1771 25.8064 42.2981 22.3191 36.7187C24.1972 26.1329 30.3654 20.5712 40.7903 20ZM40.1819 28.3505C35.0323 28.8687 31.8845 31.3197 30.7226 35.7001C32.2965 37.0777 35.4426 37.8452 40.1819 38.0061C44.939 37.9354 47.8162 36.5401 47.8711 33.3215C47.5669 29.7635 44.1167 28.2073 40.1819 28.3505Z" fill="black"/>
<path d="M21.6401 40.2412C24.2857 47.8578 31.6176 52.0967 39.1458 52.0967C45.3866 52.0967 49.5353 49.3963 51.6981 45.3201L58.6904 49.7005C56.2588 55.6725 49.0171 59.9998 40.488 59.9998C29.9376 59.9998 20.908 52.9014 21.6419 40.5454V40.2412H21.6401Z" fill="#00C252"/>
</svg>

<svg xmlns="http://www.w3.org/2000/svg" width="80" height="80" fill="none" viewBox="0 0 80 80"><rect width="79" height="79" x=".5" y=".5" fill="#fff" rx="7.5"/><rect width="79" height="79" x=".5" y=".5" stroke="#eee" rx="7.5"/><path fill="#000" d="M40.79 20c8.96 0 16.218 6.007 16.218 13.43 0 7.422-7.259 11.926-16.218 11.926-8.833-.179-14.984-3.058-18.47-8.637C24.196 26.133 30.364 20.57 40.79 20m-.608 8.35c-5.15.519-8.298 2.97-9.46 7.35 1.575 1.378 4.72 2.145 9.46 2.306 4.757-.07 7.634-1.466 7.69-4.684-.305-3.559-3.755-5.115-7.69-4.972"/><path fill="#00c252" d="M21.64 40.241c2.646 7.617 9.978 11.856 17.506 11.856 6.24 0 10.39-2.7 12.552-6.777l6.992 4.38C56.26 55.673 49.017 60 40.488 60c-10.55 0-19.58-7.099-18.846-19.455v-.304z"/></svg>
